packages/ui-icons/svg/Solid/table.svg

<svg viewBox="0 0 1920 1920" version="1.1" xmlns="http://www.w3.org/2000/svg">
    <path d="M1694.34353,1355.29412 L1694.34353,1694.11765 L1355.29412,1694.11765 L1355.29412,1355.29412 L1694.34353,1355.29412 Z M1129.41176,1355.29412 L1129.41176,1694.11765 L790.588235,1694.11765 L790.588235,1355.29412 L1129.41176,1355.29412 Z M564.705882,1355.29412 L564.705882,1694.11765 L225.882353,1694.11765 L225.882353,1355.29412 L564.705882,1355.29412 Z M1129.41176,790.588235 L1129.41176,1129.41176 L790.588235,1129.41176 L790.588235,790.588235 L1129.41176,790.588235 Z M564.705882,790.588235 L564.705882,1129.41176 L225.882353,1129.41176 L225.882353,790.588235 L564.705882,790.588235 Z M1694.23059,790.588235 L1694.23059,1129.41176 L1355.29412,1129.41176 L1355.29412,790.588235 L1694.23059,790.588235 Z M1129.41176,225.882353 L1129.41176,564.705882 L790.588235,564.705882 L790.588235,225.882353 L1129.41176,225.882353 Z M564.705882,225.882353 L564.705882,564.705882 L225.882353,564.705882 L225.882353,225.882353 L564.705882,225.882353 Z M1694.11765,225.882353 L1694.11765,564.705882 L1355.29412,564.705882 L1355.29412,225.882353 L1694.11765,225.882353 Z M1694.11765,5.04870979e-29 L225.882353,5.04870979e-29 C101.308235,5.04870979e-29 0,101.308235 0,225.882353 L0,1694.11765 C0,1818.69176 101.308235,1920 225.882353,1920 L1694.11765,1920 C1818.69176,1920 1920,1818.69176 1920,1694.11765 L1920,225.882353 C1920,101.308235 1818.69176,5.04870979e-29 1694.11765,5.04870979e-29 L1694.11765,5.04870979e-29 Z" stroke="none" stroke-width="1" fill-rule="evenodd"/>
</svg>

<svg viewBox="0 0 1920 1920" xmlns="http://www.w3.org/2000/svg">
    <path d="M1694.344 1355.294v338.824h-339.05v-338.824h339.05Zm-564.932 0v338.824H790.588v-338.824h338.824Zm-564.706 0v338.824H225.882v-338.824h338.824Zm564.706-564.706v338.824H790.588V790.588h338.824Zm-564.706 0v338.824H225.882V790.588h338.824Zm1129.525 0v338.824h-338.937V790.588h338.937Zm-564.82-564.706v338.824H790.589V225.882h338.824Zm-564.705 0v338.824H225.882V225.882h338.824Zm1129.412 0v338.824h-338.824V225.882h338.824Zm0-225.882H225.882C101.308 0 0 101.308 0 225.882v1468.236C0 1818.692 101.308 1920 225.882 1920h1468.236c124.574 0 225.882-101.308 225.882-225.882V225.882C1920 101.308 1818.692 0 1694.118 0Z" fill-rule="evenodd"/>
</svg>
